X:160
T: Kindelwiegenlied
N: A0526
O: Europa, Mitteleuropa, Deutschland
N: Andernacher Gsgb. 1608 No. 26.
R: Romanze, Ballade, Lied, religioeses Lied
M: 2/2
L: 1/4
K: F
A2c2 | d2c2 | cBA2 |
A2c2 | d2c2 | cBA2 |
G2A2 | B2A2 | GGF2 | z2
F2 | G2A2 | A2A2 | F2G2 | A4 | z2
FG | A2A2 | A4 | GABA | GGF2

@@@ Tune index: 473
